!!!!SEGMENT: pl-sa--l-1643--042_anonim--advenit-ignis-divinus.krn
!!!cenid: 16xx:1397
!!!COM: Anonim
!!!COM-rismid: pe30004985
!!!CDT:
!!!CNT:
!!!OTL: Advenit ignis divinus
!!!PDT:
!!!AGN: Sacred
!!!SMS-siglum: PL-SA
!!!SMS-shelfmark: L 1643
!!!SMS-shelfwork: 042 W
!!!SMS-variant:
!!!SMS-altvar:
!!!NIFC-rismid: 1001063153
!!!URL-scan: http://repozytorium.nifc.pl/skany/pl-sa-nut--l1643
!!!ONB-nifc: UWAGA: 8 ksiąg. Primi chori: 1mus Cantus (70-72), C 2dus (70-71), C 3tius (69-70), Bassus (66-67); Secondi chori: Primus Cantus (67-68), C 2dus (70-71), Altus (68-69), Bassus (68-69). UWAGA: metrum 2/2. Nie dodawać pustych linii, chyba że w rękopisie pojawiają się dodatkowe oznaczenia dotyczące pełnej obsady (a 4, a 8 itp.)
**kern	**text	**kern	**text	**kern	**text	**kern	**text	**kern	**text	**kern	**text	**kern	**text	**kern	**text
*group2	*	*group2	*	*group2	*	*group2	*	*group1	*	*group1	*	*group1	*	*group1	*
*part8	*part8	*part7	*part7	*part6	*part6	*part5	*part5	*part4	*part4	*part3	*part3	*part2	*part2	*part1	*part1
*staff8	*staff8	*staff7	*staff7	*staff6	*staff6	*staff5	*staff5	*staff4	*staff4	*staff3	*staff3	*staff2	*staff2	*staff1	*staff1
*I"Baſsus 2di Chori.	*	*I"Altus secundi Chori.	*	*I"Cantus 2dus Secundi Chori.	*	*I"Primus Cantus 2di Chori	*	*I"Bassus Primi Chori.	*	*I"Cantus 3tius Primi Chori	*	*I"Cantus 2dus Primi Chori.	*	*I"Im(us) Cantus Primi Chori	*
*I'[Coro 2 B]	*	*I'[Coro 2 A]	*	*I'[Coro 2 C 2]	*	*I'[Coro 2 C 1]	*	*I'[Coro 1 B]	*	*I'[Coro 1 C 3]	*	*I'[Coro 1 C 2]	*	*I'[Coro 1 C 1]	*
*clefC3	*	*clefC2	*	*clefC1	*	*clefG2	*	*clefC3	*	*clefC2	*	*clefC1	*	*clefG2	*
*k[b-]	*	*k[b-]	*	*k[b-]	*	*k[b-]	*	*k[b-]	*	*k[b-]	*	*k[b-]	*	*k[b-]	*
*M2/2	*	*M2/2	*	*M2/2	*	*M2/2	*	*M2/2	*	*M2/2	*	*M2/2	*	*M2/2	*
*met(C|)	*	*met(C|)	*	*met(C|)	*	*met(C|)	*	*met(C|)	*	*met(C|)	*	*met(C|)	*	*met(C|)	*
=1-	=1-	=1-	=1-	=1-	=1-	=1-	=1-	=1-	=1-	=1-	=1-	=1-	=1-	=1-	=1-
00r	.	00r	.	00r	.	00r	.	1G	Ad-	1g	Ad-	2.b-\	Ad-	1dd	Ad-
.	.	.	.	.	.	.	.	.	.	.	.	4cc\	-ve-	.	.
=2-	=2-	=2-	=2-	=2-	=2-	=2-	=2-	=2-	=2-	=2-	=2-	=2-	=2-	=2-	=2-
.	.	.	.	.	.	.	.	2.B-/	-ve-	4d/	-ve-	2.dd\	.	2.dd\	-ve-
.	.	.	.	.	.	.	.	.	.	4e/	.	.	.	.	.
.	.	.	.	.	.	.	.	.	.	4f\	.	.	.	.	.
.	.	.	.	.	.	.	.	8A/L	.	4g\	.	8cc\L	.	4ee\	.
.	.	.	.	.	.	.	.	8G/J	.	.	.	8b-\J	.	.	.
=3-	=3-	=3-	=3-	=3-	=3-	=3-	=3-	=3-	=3-	=3-	=3-	=3-	=3-	=3-	=3-
.	.	.	.	.	.	.	.	4F/	.	2.a\	.	4a\	.	2.ff\	.
.	.	.	.	.	.	.	.	4G/	.	.	.	4b-\	.	.	.
.	.	.	.	.	.	.	.	4A/	.	.	.	2cc\	.	.	.
.	.	.	.	.	.	.	.	4B-/	.	8g\L	.	.	.	8ee\L	.
.	.	.	.	.	.	.	.	.	.	8f\J	.	.	.	8dd\J	.
=4-	=4-	=4-	=4-	=4-	=4-	=4-	=4-	=4-	=4-	=4-	=4-	=4-	=4-	=4-	=4-
.	.	.	.	.	.	.	.	2.c/	.	2.e/	.	4.g/	.	4cc\	.
.	.	.	.	.	.	.	.	.	.	.	.	.	.	4dd\	.
.	.	.	.	.	.	.	.	.	.	.	.	8a\	.	.	.
.	.	.	.	.	.	.	.	.	.	.	.	4b-\	.	4ee\	.
.	.	.	.	.	.	.	.	8B-/L	.	4f\	.	4cc\	.	4ff\	.
.	.	.	.	.	.	.	.	8A/J	.	.	.	.	.	.	.
=5-	=5-	=5-	=5-	=5-	=5-	=5-	=5-	=5-	=5-	=5-	=5-	=5-	=5-	=5-	=5-
00r	.	00r	.	00r	.	00r	.	4G/	.	2.g\	.	2.dd\	.	1gg	.
.	.	.	.	.	.	.	.	4A/	.	.	.	.	.	.	.
.	.	.	.	.	.	.	.	4B-/	.	.	.	.	.	.	.
.	.	.	.	.	.	.	.	4c/	.	8f\L	.	8cc\L	.	.	.
.	.	.	.	.	.	.	.	.	.	8e\J	.	8b-\J	.	.	.
=6-	=6-	=6-	=6-	=6-	=6-	=6-	=6-	=6-	=6-	=6-	=6-	=6-	=6-	=6-	=6-
.	.	.	.	.	.	.	.	2.d\	.	4d/	.	2.a\	.	2dd\	-nit
.	.	.	.	.	.	.	.	.	.	4e/	.	.	.	.	.
.	.	.	.	.	.	.	.	.	.	4f\	.	.	.	2ff\	ig-
.	.	.	.	.	.	.	.	8c/L	.	4g\	.	4b-\	.	.	.
.	.	.	.	.	.	.	.	8B-/J	.	.	.	.	.	.	.
=7-	=7-	=7-	=7-	=7-	=7-	=7-	=7-	=7-	=7-	=7-	=7-	=7-	=7-	=7-	=7-
*	*	*	*	*	*	*	*	*	*	*	*	*lig	*	*	*
.	.	.	.	.	.	.	.	1A	-nit	1a,>	-nit	1cc	.	2.ee\	-nis
.	.	.	.	.	.	.	.	.	.	.	.	.	.	4ff\	di-
=8-	=8-	=8-	=8-	=8-	=8-	=8-	=8-	=8-	=8-	=8-	=8-	=8-	=8-	=8-	=8-
.	.	.	.	.	.	.	.	1.G	i-	1.b-	i-	1dd	.	1gg	-vi-
*	*	*	*	*	*	*	*	*	*	*	*	*Xlig	*	*	*
=9-	=9-	=9-	=9-	=9-	=9-	=9-	=9-	=9-	=9-	=9-	=9-	=9-	=9-	=9-	=9-
0r	.	0r	.	0r	.	0r	.	.	.	.	.	2b-\	-nit	4dd\	-nus
.	.	.	.	.	.	.	.	.	.	.	.	.	.	4ee\	.
.	.	.	.	.	.	.	.	2F/	-gnis	2a\	-gnis	2cc\	ig-	2ff\	.
!	!	!	!	!	!	!	!	!LO:SIC:v:t=custos c	!	!	!	!	!	!	!
!	!	!	!	!	!	!	!	!LO:LB:g=original	!	!	!	!	!	!	!
=10-	=10-	=10-	=10-	=10-	=10-	=10-	=10-	=10-	=10-	=10-	=10-	=10-	=10-	=10-	=10-
*	*	*	*	*	*	*	*	*lig	*	*	*	*	*	*	*
.	.	.	.	.	.	.	.	1c	di-	2.g\	di-	1cc	-nis	2.gg\	ig-
.	.	.	.	.	.	.	.	.	.	4a\	.	.	.	8ff\L	-nis
.	.	.	.	.	.	.	.	.	.	.	.	.	.	8ee\J	.
!	!	!	!	!	!	!	!	!	!	!	!	!LO:SIC:v:t=custos dd	!	!	!
!	!	!	!	!	!	!	!	!	!	!	!	!LO:LB:g=original	!	!	!
=11-	=11-	=11-	=11-	=11-	=11-	=11-	=11-	=11-	=11-	=11-	=11-	=11-	=11-	=11-	=11-
*	*	*	*	*	*	*	*	*col	*	*	*	*	*	*	*
1r	.	1r	.	1r	.	1r	.	2.B-/	.	1.b-	-vi-	2.dd\	di-	2dd\	di-
.	.	.	.	.	.	.	.	.	.	.	.	.	.	4ee\	-vi-
*	*	*	*	*	*	*	*	*Xlig	*	*	*	*	*	*	*
*	*	*	*	*	*	*	*	*Xcol	*	*	*	*	*	*	*
.	.	.	.	.	.	.	.	4A/	.	.	.	4cc\	.	4ff\	.
=12-	=12-	=12-	=12-	=12-	=12-	=12-	=12-	=12-	=12-	=12-	=12-	=12-	=12-	=12-	=12-
2r	.	2r	.	2r	.	2r	.	1G	-vi-	.	.	4b-\	-vi-	1gg	.
.	.	.	.	.	.	.	.	.	.	.	.	4a\	.	.	.
2G/	Ad-	2a\	Ad-	2dd\	Ad-	1dd\	Ad-	.	.	2g\	.	4b-\	.	.	.
.	.	.	.	.	.	.	.	.	.	.	.	4cc\	.	.	.
=13-	=13-	=13-	=13-	=13-	=13-	=13-	=13-	=13-	=13-	=13-	=13-	=13-	=13-	=13-	=13-
!	!	!	!	!	!	!	!	!	!	!	!	!	!	!LO:SIC:v:s:t=1ff	!
!	!	!	!	!	!	!	!	!	!	!	!	!	!	!LO:TX:b:t=P:problem:# below	!
2.d\	-ve-	1.a	-ve-	2.ff\	-ve-	.	.	1F	-nus	1a	-nus	1dd	-nus	1ff#X	-nus
.	.	.	.	.	.	2.ff\	-ve-	.	.	.	.	.	.	.	.
8c/L	.	.	.	8ee\L	.	.	.	.	.	.	.	.	.	.	.
8B-/J	.	.	.	8dd\J	.	.	.	.	.	.	.	.	.	.	.
!	!	!	!	!	!	!	!	!	!	!LO:SIC:v:t=custos a	!	!	!	!LO:SIC:v:t=custos dd	!
!	!	!	!	!	!	!	!	!	!	!LO:LB:g=original	!	!	!	!LO:PB:g=original	!
=14-	=14-	=14-	=14-	=14-	=14-	=14-	=14-	=14-	=14-	=14-	=14-	=14-	=14-	=14-	=14-
4A/	.	.	.	4cc\	.	.	.	00r	.	00r	.	00r	.	00r	.
4B-/	.	.	.	4dd\	.	8ee\L	.	.	.	.	.	.	.	.	.
.	.	.	.	.	.	8dd\J	.	.	.	.	.	.	.	.	.
1c\	.	2g\	-nit	2ee\	.	4cc\	.	.	.	.	.	.	.	.	.
.	.	.	.	.	.	4dd\	.	.	.	.	.	.	.	.	.
=15-	=15-	=15-	=15-	=15-	=15-	=15-	=15-	=15-	=15-	=15-	=15-	=15-	=15-	=15-	=15-
.	.	4g\	i-	2cc,>\	-nit	4ee\	.	.	.	.	.	.	.	.	.
.	.	4a\	.	.	.	4cc\	.	.	.	.	.	.	.	.	.
2G/	.	4b-\	.	4b-\	i	2.dd\	.	.	.	.	.	.	.	.	.
.	.	4g\	.	4cc\	.	.	.	.	.	.	.	.	.	.	.
=16-	=16-	=16-	=16-	=16-	=16-	=16-	=16-	=16-	=16-	=16-	=16-	=16-	=16-	=16-	=16-
1d	.	1a	.	2.dd\	.	.	.	.	.	.	.	.	.	.	.
.	.	.	.	.	.	4ee\	.	.	.	.	.	.	.	.	.
!	!	!	!	!	!	!LO:TX:b:t=P:problem:# below	!	!	!	!	!	!	!	!	!
.	.	.	.	.	.	2ff#X,>\	-nit	.	.	.	.	.	.	.	.
.	.	.	.	4cc\	.	.	.	.	.	.	.	.	.	.	.
=17-	=17-	=17-	=17-	=17-	=17-	=17-	=17-	=17-	=17-	=17-	=17-	=17-	=17-	=17-	=17-
2G/	nit	2b-,>\	-gnis	2b-\	.	2gg\	ig-	.	.	.	.	.	.	.	.
2c/	ig-	2g\	di-	2cc\	-gnis	2ee\	-nis	.	.	.	.	.	.	.	.
=18-	=18-	=18-	=18-	=18-	=18-	=18-	=18-	=18-	=18-	=18-	=18-	=18-	=18-	=18-	=18-
*	*	*lig	*	*	*	*	*	*	*	*	*	*	*	*	*
2.B-/	-nis	1b-	-vi-	1.dd	di-	4ffny\	di-	0r	.	0r	.	0r	.	0r	.
.	.	.	.	.	.	4dd\	.	.	.	.	.	.	.	.	.
.	.	.	.	.	.	2.gg\	.	.	.	.	.	.	.	.	.
4c/	di-	.	.	.	.	.	.	.	.	.	.	.	.	.	.
=19-	=19-	=19-	=19-	=19-	=19-	=19-	=19-	=19-	=19-	=19-	=19-	=19-	=19-	=19-	=19-
1d	-vi-	1a	.	.	.	.	.	.	.	.	.	.	.	.	.
.	.	.	.	.	.	8ff\L	.	.	.	.	.	.	.	.	.
.	.	.	.	.	.	8ee\J	.	.	.	.	.	.	.	.	.
.	.	.	.	2dd\	-vi-	2ff#X\	-vi-	.	.	.	.	.	.	.	.
*	*	*Xlig	*	*	*	*	*	*	*	*	*	*	*	*	*
=20-	=20-	=20-	=20-	=20-	=20-	=20-	=20-	=20-	=20-	=20-	=20-	=20-	=20-	=20-	=20-
!	!	!LO:TX:b:t=P:problem:# below	!	!	!	!	!	!	!	!	!	!	!	!	!
1G	-nus	1b#X	-nus	1dd	-nus	1gg	-nus	2r	.	2r	.	2r	.	2r	.
.	.	.	.	.	.	.	.	2.G/	non	2.g\	non	2.b-\	non	2.dd\	non
=21-	=21-	=21-	=21-	=21-	=21-	=21-	=21-	=21-	=21-	=21-	=21-	=21-	=21-	=21-	=21-
1r	.	1r	.	1r	.	1r	.	.	.	.	.	.	.	.	.
.	.	.	.	.	.	.	.	4c/	com-	4g\	com-	4cc\	com-	4ee\	com-
.	.	.	.	.	.	.	.	2B-/	-bu-	2b-\	-bu-	2dd\	-bu-	2ffny\	-bu-
=22-	=22-	=22-	=22-	=22-	=22-	=22-	=22-	=22-	=22-	=22-	=22-	=22-	=22-	=22-	=22-
2r	.	2r	.	2r	.	2r	.	1F	-rens	2a\	-rens	1cc	-rens	1ff	-rens
2.F/	ſed	2.a\	ſed	2.cc\	ſed	2.ffny\	ſed	.	.	2r	.	.	.	.	.
=23-	=23-	=23-	=23-	=23-	=23-	=23-	=23-	=23-	=23-	=23-	=23-	=23-	=23-	=23-	=23-
.	.	.	.	.	.	.	.	1r	.	1r	.	1r	.	1r	.
4c/	il-	4g\	il-	4cc\	il-	4ee\	il-	.	.	.	.	.	.	.	.
4d\	-lu-	4f\	-lu-	4a\	-lu-	4dd\	-lu-	.	.	.	.	.	.	.	.
4G/	-mi-	4g\	-mi-	4b-\	-mi-	4dd\	-mi-	.	.	.	.	.	.	.	.
=24-	=24-	=24-	=24-	=24-	=24-	=24-	=24-	=24-	=24-	=24-	=24-	=24-	=24-	=24-	=24-
1c	-nans	1g	-nans	1cc	-nans	1ee	-nans	2r	.	2r	.	2r	.	2r	.
.	.	.	.	.	.	.	.	2.c/	ſed	2.g\	ſed	2.cc\	ſed	2.ee\	ſed
!	!	!	!	!	!	!LO:SIC:v:t=custos ff	!	!	!	!	!	!	!	!	!
!	!	!	!	!	!	!LO:LB:g=original	!	!	!	!	!	!	!	!	!
=25-	=25-	=25-	=25-	=25-	=25-	=25-	=25-	=25-	=25-	=25-	=25-	=25-	=25-	=25-	=25-
1r	.	1r	.	1r	.	1r	.	.	.	.	.	.	.	.	.
.	.	.	.	.	.	.	.	4A/	il-	4a\	il-	4cc\	il-	4ff\	il-
.	.	.	.	.	.	.	.	4B-/	-lu-	4f\	-lu-	4dd\	-lu-	4dd\	-lu-
.	.	.	.	.	.	.	.	4G/	-mi-	4g\	-mi-	4b-\	-mi-	4ee\	-mi-
!	!	!	!	!LO:SIC:v:t=custos cc	!	!	!	!	!	!	!	!	!	!	!
!	!	!	!	!LO:LB:g=original	!	!	!	!	!	!	!	!	!	!	!
=26-	=26-	=26-	=26-	=26-	=26-	=26-	=26-	=26-	=26-	=26-	=26-	=26-	=26-	=26-	=26-
2r	.	2r	.	2r	.	2r	.	1F	-nans	1a	-nans	1cc	-nans	1ff	-nans
!LO:SIC:v:t=custos F	!	!	!	!	!	!	!	!	!	!	!	!	!	!	!
!LO:LB:g=original	!	!	!	!	!	!	!	!	!	!	!	!	!	!	!
2.F/	non	2.a\	non	2.cc\	non	2.ff\	non	.	.	.	.	.	.	.	.
=27-	=27-	=27-	=27-	=27-	=27-	=27-	=27-	=27-	=27-	=27-	=27-	=27-	=27-	=27-	=27-
.	.	.	.	.	.	.	.	0r	.	0r	.	0r	.	0r	.
4c/	com-	4g\	com-	4cc\	com-	4ee\	com-	.	.	.	.	.	.	.	.
4d\	-bu-	4f\	-bu-	4a\	-bu-	4dd\	-bu-	.	.	.	.	.	.	.	.
4G/	-rens	4g\	-rens	4b-\	-rens	4dd\	-rens	.	.	.	.	.	.	.	.
=28-	=28-	=28-	=28-	=28-	=28-	=28-	=28-	=28-	=28-	=28-	=28-	=28-	=28-	=28-	=28-
!	!	!	!	!	!	!LO:TX:b:t=P:problem:# below	!	!	!	!	!	!	!	!	!
4A/	ſed	4e/	ſed	4a\	ſed	4cc#X\	ſed	.	.	.	.	.	.	.	.
4B-/	il-	4d/	il-	4g/	il-	4dd\	il-	.	.	.	.	.	.	.	.
4.A/	-lu-	4.e/	-lu-	4.a\	-lu-	4cc#\	-lu-	.	.	.	.	.	.	.	.
!	!	!	!	!	!	!LO:TX:b:t=P:problem:# below	!	!	!	!	!	!	!	!	!
.	.	.	.	.	.	4cc#X\	-mi-	.	.	.	.	.	.	.	.
8A/	-mi-	8e/	-mi-	8a\	-mi-	.	.	.	.	.	.	.	.	.	.
!	!	!LO:SIC:v:t=custos f#	!	!	!	!	!	!	!	!	!	!	!	!	!
!	!	!LO:LB:g=original	!	!	!	!	!	!	!	!	!	!	!	!	!
=29-	=29-	=29-	=29-	=29-	=29-	=29-	=29-	=29-	=29-	=29-	=29-	=29-	=29-	=29-	=29-
!	!	!LO:TX:b:t=P:problem:# below	!	!	!	!	!	!	!	!	!	!	!	!	!
1d	-nans	1f#X	-nans	1a	-nans	1dd	-nans	2r	.	2r	.	2r	.	2r	.
.	.	.	.	.	.	.	.	2.d\	non	2.a\	non	2.dd\	non	2.ff\	non
=30-	=30-	=30-	=30-	=30-	=30-	=30-	=30-	=30-	=30-	=30-	=30-	=30-	=30-	=30-	=30-
1r	.	1r	.	1r	.	1r	.	.	.	.	.	.	.	.	.
.	.	.	.	.	.	.	.	4e-X\	con-	2g\	con-	4b-\	con-	4gg\	con-
.	.	.	.	.	.	.	.	2c/	-ſu-	.	.	2cc\	-ſu-	2ee-X\	-ſu-
.	.	.	.	.	.	.	.	.	.	4a\	-ſu-	.	.	.	.
=31-	=31-	=31-	=31-	=31-	=31-	=31-	=31-	=31-	=31-	=31-	=31-	=31-	=31-	=31-	=31-
4r	.	4r	.	4r	.	4r	.	2B-/	-mens	2b-\	-mens	2dd\	-mens	2dd\	-mens
4B-/	ſed	4b-y\	ſed	4dd\	ſed	4ff\	ſed	.	.	.	.	.	.	.	.
8F/L	lu-	2a\	lu-	8cc\L	lu-	4ff\	lu-	2r	.	2r	.	2r	.	2r	.
8G/	.	.	.	8b-\	.	.	.	.	.	.	.	.	.	.	.
8A/	.	.	.	8cc\	.	8ee\L	.	.	.	.	.	.	.	.	.
8B-/J	.	.	.	8dd\J	.	8dd\J	.	.	.	.	.	.	.	.	.
=32-	=32-	=32-	=32-	=32-	=32-	=32-	=32-	=32-	=32-	=32-	=32-	=32-	=32-	=32-	=32-
4c/	.	4g\	.	4cc\	.	4ee\	.	1r	.	1r	.	1r	.	1r	.
4d\	.	4fny\	.	4b-\	.	2ff\	.	.	.	.	.	.	.	.	.
2c/	.	2g\	.	2cc\	.	.	.	.	.	.	.	.	.	.	.
.	.	.	.	.	.	4ee\	.	.	.	.	.	.	.	.	.
=33-	=33-	=33-	=33-	=33-	=33-	=33-	=33-	=33-	=33-	=33-	=33-	=33-	=33-	=33-	=33-
1F	-cens.	1a	-cens	1cc	-cens	1ff	-cens	2r	.	2r	.	2r	.	2r	.
.	.	.	.	.	.	.	.	2.f\	non	2.a\	non	2.cc\	non	2.ff\	non
=34-	=34-	=34-	=34-	=34-	=34-	=34-	=34-	=34-	=34-	=34-	=34-	=34-	=34-	=34-	=34-
1r	.	1r	.	1r	.	1r	.	.	.	.	.	.	.	.	.
.	.	.	.	.	.	.	.	4d\	con-	4b-\	con-	4dd\	con-	4ff\	con-
!	!	!	!	!	!	!	!	!	!	!	!	!LO:SIC:v:t=custos b-	!	!	!
!	!	!	!	!	!	!	!	!	!	!	!	!LO:PB:g=original	!	!	!
.	.	.	.	.	.	.	.	2e-X\	-ſu-	2g\	-ſu-	4b-\	-ſu-	2gg\	-ſu-
.	.	.	.	.	.	.	.	.	.	.	.	4cc\	.	.	.
=35-	=35-	=35-	=35-	=35-	=35-	=35-	=35-	=35-	=35-	=35-	=35-	=35-	=35-	=35-	=35-
!	!	!	!	!	!	!	!	!	!	!	!	!	!	!LO:TX:b:t=P:problem:# below	!
4r	.	4r	.	4r	.	4r	.	2d\	-mens	2a\	-mens	2dd\	-mens	2ff#X\	-mens
4d\	ſed	4a\	ſed	4dd\	ſed	4ff\	ſed	.	.	.	.	.	.	.	.
!	!	!	!	!	!	!	!	!LO:SIC:v:t=custos d	!	!	!	!	!	!	!
!	!	!	!	!	!	!	!	!LO:LB:g=original	!	!	!	!	!	!	!
8G/L	lu-	8b-\L	lu-	8b-\L	lu-	4gg\	lu-	2r	.	2r	.	2r	.	2r	.
8A/	.	8a\J	.	8cc\	.	.	.	.	.	.	.	.	.	.	.
8B-/	.	4g\	.	8dd\	.	8ff\L	.	.	.	.	.	.	.	.	.
8c/J	.	.	.	8ee\J	.	8ee\J	.	.	.	.	.	.	.	.	.
=36-	=36-	=36-	=36-	=36-	=36-	=36-	=36-	=36-	=36-	=36-	=36-	=36-	=36-	=36-	=36-
4d\	.	4a\	.	4dd\	.	4ff\	.	2r	.	2r	.	2r	.	2r	.
4e-X\	.	4g\	.	4cc\	.	2gg\	.	.	.	.	.	.	.	.	.
2d\	.	2a\	.	2dd\	.	.	.	4r	.	4r	.	4r	.	4r	.
.	.	.	.	.	.	4ff#X\	.	4d\	ſed	4a\	ſed	4dd\	ſed	4ffny\	ſed
!	!	!	!	!	!	!LO:TX:b:t=P:problem:# below	!	!	!	!	!	!	!	!LO:SIC:v:t=custos gg	!
!	!	!	!	!	!	!	!	!	!	!	!	!	!	!LO:LB:g=original	!
=37-	=37-	=37-	=37-	=37-	=37-	=37-	=37-	=37-	=37-	=37-	=37-	=37-	=37-	=37-	=37-
!	!	!LO:TX:b:t=P:problem:# below	!	!	!	!	!	!	!	!	!	!	!	!	!
2g\	-cens	2b#X\	-cens	2dd\	-cens	2gg\	-cens	8G/L	lu-	2b-\	lu-	8b-\L	lu-	4gg\	lu-
.	.	.	.	.	.	.	.	8A/	.	.	.	8cc\	.	.	.
.	.	.	.	.	.	.	.	8B-/	.	.	.	8dd\	.	8ff\L	.
.	.	.	.	.	.	.	.	8c/J	.	.	.	8ee-X\J	.	8eeny\J	.
2r	.	2r	.	2r	.	2r	.	4d\	.	4a\	.	4dd\	.	4ff\	.
.	.	.	.	.	.	.	.	4e-X\	.	4g\	.	4cc\	.	2gg\	.
!	!	!	!	!	!	!	!	!	!	!LO:SIC:v:t=custos a	!	!	!	!	!
!	!	!	!	!	!	!	!	!	!	!LO:LB:g=original	!	!	!	!	!
=38-	=38-	=38-	=38-	=38-	=38-	=38-	=38-	=38-	=38-	=38-	=38-	=38-	=38-	=38-	=38-
4r	.	4r	.	4r	.	4r	.	2d\	.	2a\	.	2dd\	.	.	.
!	!	!	!	!	!	!	!	!	!	!	!	!	!	!LO:TX:b:t=P:problem:# below	!
4d\	ſed	4a\	ſed	4dd\	ſed	4ffny\	ſed	.	.	.	.	.	.	4ff#X\	.
!LO:LB:g=original	!	!	!	!LO:LB:g=original	!	!LO:LB:g=original	!	!	!	!	!	!	!	!	!
!LO:SIC:v:t=custos G	!	!	!	!LO:SIC:v:t=custos dd	!	!LO:SIC:v:t=custos dd	!	!	!	!	!	!	!	!	!
!	!	!	!	!	!	!	!	!	!	!LO:N:acc=#	!	!	!	!	!
!	!	!	!	!	!	!	!	!	!	!LO:TX:b:t=P:problem:# below	!	!	!	!	!
8G/L	lu-	4g\	lu-	4dd\	lu-	8dd\L	lu-	2g\	-cens	2bn\	-cens	2dd\	-cens	2gg\	-cens
8A/	.	.	.	.	.	8ccny\	.	.	.	.	.	.	.	.	.
8B-/	.	8f\L	.	8cc\L	.	8dd\	.	.	.	.	.	.	.	.	.
8c/J	.	8e\J	.	8b-\J	.	8ee\J	.	.	.	.	.	.	.	.	.
=39-	=39-	=39-	=39-	=39-	=39-	=39-	=39-	=39-	=39-	=39-	=39-	=39-	=39-	=39-	=39-
4d\	.	4f\	.	4a\	.	4ff\	.	2r	.	2r	.	2r	.	2r	.
4B-/	.	4g\	.	4g/	.	2dd\	.	.	.	.	.	.	.	.	.
2A/	.	2e/	.	2a\	.	.	.	4r	.	4r	.	4r	.	4r	.
!	!	!	!	!	!	!LO:TX:b:t=P:problem:# below	!	!	!	!	!	!	!	!	!
.	.	.	.	.	.	4cc#X\	.	4A/	ſed	4a\	ſed	4cc\	ſed	4ee\	ſed
=40-	=40-	=40-	=40-	=40-	=40-	=40-	=40-	=40-	=40-	=40-	=40-	=40-	=40-	=40-	=40-
!	!	!LO:TX:b:t=P:problem:# below	!	!	!	!	!	!	!	!	!	!	!	!	!
2D/	-cens	2f#X\	-cens	2a\	-cens	2dd\	-cens	8d\L	lu-	2a\	lu-	4.dd\	lu-	8ffny\L	lu-
.	.	.	.	.	.	.	.	8c\J	.	.	.	.	.	8ee\	.
.	.	.	.	.	.	.	.	8B-/L	.	.	.	.	.	8dd\	.
.	.	.	.	.	.	.	.	8A/J	.	.	.	8cc\	.	8cc\J	.
2r	.	2r	.	2r	.	2r	.	2G/	.	2b-y\	.	2b-\	.	4.dd\	.
.	.	.	.	.	.	.	.	.	.	.	.	.	.	8ee\	.
=41-	=41-	=41-	=41-	=41-	=41-	=41-	=41-	=41-	=41-	=41-	=41-	=41-	=41-	=41-	=41-
!	!	!	!	!	!	!	!	!	!	!	!	!	!	!LO:TX:b:t=P:problem:# below	!
1r	.	1r	.	1r	.	1r	.	4d\	.	4a\	.	4a\	.	4ff#X\	.
.	.	.	.	.	.	.	.	4B-/	.	4dd\	.	4dd\	.	2gg\	.
.	.	.	.	.	.	.	.	4c/	.	4cc\	.	4ee-X\	.	.	.
!	!	!	!	!	!	!	!	!	!	!	!	!	!	!LO:TX:b:t=P:problem:# below	!
.	.	.	.	.	.	.	.	4d\	.	4a\	.	4dd\	.	4ff#X\	.
=42-	=42-	=42-	=42-	=42-	=42-	=42-	=42-	=42-	=42-	=42-	=42-	=42-	=42-	=42-	=42-
!	!	!	!	!	!	!	!	!	!	!LO:N:acc=#	!	!	!	!	!
!	!	!	!	!	!	!	!	!	!	!LO:TX:b:t=P:problem:# below	!	!	!	!	!
2r	.	2r	.	2r	.	2r	.	1G	-cens	1bn	-cens	1dd	-cens	1gg	-cens
1G/	et	2g\	et	1dd\	et	1gg\	et	.	.	.	.	.	.	.	.
=43-	=43-	=43-	=43-	=43-	=43-	=43-	=43-	=43-	=43-	=43-	=43-	=43-	=43-	=43-	=43-
.	.	1.d	in-	.	.	.	.	2r	.	2r	.	2r	.	2r	.
2G/	in-	.	.	2b-\	in-	2dd\	in-	1g\	et	1d/	et	2dd\	et	1gg\	et
=44-	=44-	=44-	=44-	=44-	=44-	=44-	=44-	=44-	=44-	=44-	=44-	=44-	=44-	=44-	=44-
2G/	-ve-	.	.	1dd	-ve-	1dd	-ve-	.	.	.	.	1dd	in-	.	.
2G/	-nit	2g\	-ve-	.	.	.	.	2g\	in-	2g\	in-	.	.	2gg\	in-
!	!	!LO:LB:g=original	!	!	!	!	!	!	!	!	!	!	!	!	!
=45-	=45-	=45-	=45-	=45-	=45-	=45-	=45-	=45-	=45-	=45-	=45-	=45-	=45-	=45-	=45-
0c	cor-	1.g	-nit	0cc	-nit	2.ee\	.	1.c	-ve-	1g	-ve-	1.cc	-ve-	1ee	-ve-
.	.	.	.	.	.	4dd\	.	.	.	.	.	.	.	.	.
=46-	=46-	=46-	=46-	=46-	=46-	=46-	=46-	=46-	=46-	=46-	=46-	=46-	=46-	=46-	=46-
.	.	.	.	.	.	1ccny,>	-nit	.	.	1g	-nit	.	.	2ee\	-nit
.	.	2c/	cor-	.	.	.	.	2c/	-nit	.	.	2cc\	-nit	2gg\	cor-
!	!	!	!	!	!	!	!	!LO:SIC:v:t=custos f	!	!	!	!LO:SIC:v:t=custos cc	!	!	!
!	!	!	!	!	!	!	!	!LO:LB:g=original	!	!	!	!	!LO:LB:g=original	!	!
=47-	=47-	=47-	=47-	=47-	=47-	=47-	=47-	=47-	=47-	=47-	=47-	=47-	=47-	=47-	=47-
1.F	-da	1c	-da	2cc\	cor-	1.ff	cor-	1f	cor-	1a	cor-	1cc	cor-	1.ffny	-da
.	.	.	.	2a,>\	-da	.	.	.	.	.	.	.	.	.	.
=48-	=48-	=48-	=48-	=48-	=48-	=48-	=48-	=48-	=48-	=48-	=48-	=48-	=48-	=48-	=48-
.	.	2fny\	dis-	0cc	di-	.	.	2f\	-da	2a\	-da	4cc\	-da	.	.
.	.	.	.	.	.	.	.	.	.	.	.	4b-\	.	.	.
2F/	di-	2c/	-ci-	.	.	2cc\	.	2f\	diſ-	2a\	dis-	4a\	.	2ff\	di-
.	.	.	.	.	.	.	.	.	.	.	.	4b-\	.	.	.
!	!	!	!	!	!	!	!	!	!	!	!	!	!	!LO:SIC:v:t=custos ee	!
!	!	!	!	!	!	!	!	!	!	!	!	!	!	!LO:LB:g=original	!
=49-	=49-	=49-	=49-	=49-	=49-	=49-	=49-	=49-	=49-	=49-	=49-	=49-	=49-	=49-	=49-
1c	-ſci-	2c/	-pu-	.	.	1cc,>	-da	2c/	-ci-	2g\	-ci-	2cc\	.	1ee	-ſci-
.	.	1g\	-lo-	.	.	.	.	2c/	pu-	2g\	-pu-	4g/	di-	.	.
.	.	.	.	.	.	.	.	.	.	.	.	4a\	.	.	.
=50-	=50-	=50-	=50-	=50-	=50-	=50-	=50-	=50-	=50-	=50-	=50-	=50-	=50-	=50-	=50-
4G/	-pu-	.	.	2.b-\	-ſci-	1dd	di-	2.g\	-lo-	1a	-lo-	2.b-\	-ſci-	2dd\	-pu-
4A/	.	.	.	.	.	.	.	.	.	.	.	.	.	.	.
4B-/	.	2d/	-rum	.	.	.	.	.	.	.	.	.	.	1gg\	-lo-
4c/	.	.	.	4cc\	.	.	.	8f\L	.	.	.	4cc\	-pu-	.	.
.	.	.	.	.	.	.	.	8eny\J	.	.	.	.	.	.	.
=51-	=51-	=51-	=51-	=51-	=51-	=51-	=51-	=51-	=51-	=51-	=51-	=51-	=51-	=51-	=51-
1d	-lo-	0d	re-	2dd\	.	2.dd\	-ſci-	1d	-rum	2g\	-rum	2.dd\	-lo-	.	.
!	!	!	!	!	!	!	!	!	!	!LO:TX:t=P:problem:brakujące pauzy?	!	!	!	!LO:TX:b:t=P:problem:# below	!
.	.	.	.	2a\	-pu-	.	.	.	.	2ryy	.	.	.	2ff#X\	-lo-
.	.	.	.	.	.	4cc\	-pu-	.	.	.	.	4cc\	.	.	.
=52-	=52-	=52-	=52-	=52-	=52-	=52-	=52-	=52-	=52-	=52-	=52-	=52-	=52-	=52-	=52-
1G	-rum	.	.	1b-	-lo-	2b-/	-lo-	1g	re-	2ryy	.	1b-	.	2gg,>\	-rum
.	.	.	.	.	.	2dd,>\	-rum	.	.	2b-y\	re-	.	.	2dd\	re-
=53-	=53-	=53-	=53-	=53-	=53-	=53-	=53-	=53-	=53-	=53-	=53-	=53-	=53-	=53-	=53-
2d\	re-	1d	-ce-	2a\	-rum	2dd\	re-	2d\	-ce-	2a\	-ce-	2a,>\	-rum	2dd\	-ce-
!	!	!	!	!	!	!	!	!	!	!LO:SIC:v:t=custos a	!	!	!	!LO:TX:b:t=P:problem:# below	!
!	!	!	!	!	!	!	!	!	!	!LO:LB:g=original	!	!	!	!	!
2d\	-cep-	.	.	2dd\	re-	2.dd\	-cep-	2.d\	-pta-	2.a\	-pta-	2.dd\	re-	2.ff#X\	-pta-
=54-	=54-	=54-	=54-	=54-	=54-	=54-	=54-	=54-	=54-	=54-	=54-	=54-	=54-	=54-	=54-
2.d\	-ta-	2.d/	-pta-	2.a\	-cep-	.	.	.	.	.	.	.	.	.	.
!	!	!	!	!	!	!	!	!	!	!	!	!	!	!LO:TX:b:t=P:problem:# below	!
.	.	.	.	.	.	4dd\	-ta-	4d\	-cu-	4a\	-cu-	4dd\	-ce-	4ff#X\	cu-
!	!	!	!	!	!	!	!	!	!	!	!	!	!	!LO:TX:b:t=P:problem:# below	!
.	.	.	.	.	.	2dd\	-cu-	2d\	-la	2a\	-la	2dd\	-pta-	2ff#X\	-la
4d\	-cu-	4d/	-cu-	4a\	-ta-	.	.	.	.	.	.	.	.	.	.
!	!	!	!	!	!	!LO:SIC:v:t=custos dd	!	!	!	!	!	!	!	!	!
!	!	!	!	!	!	!LO:LB:g=original	!	!	!	!	!	!	!	!	!
=55-	=55-	=55-	=55-	=55-	=55-	=55-	=55-	=55-	=55-	=55-	=55-	=55-	=55-	=55-	=55-
4G/	-la	1d	-la	2.b-\	-cu-	1.dd	-la	2.g\	mun-	2b-\	mun-	2dd\	-cu-	2dd\	mun-
4A/	.	.	.	.	.	.	.	.	.	.	.	.	.	.	.
4B-/	.	.	.	.	.	.	.	.	.	2g\	.	4b-\	-la	2.gg\	.
4c/	.	.	.	8a\L	.	.	.	8f\L	.	.	.	4cc\	.	.	.
.	.	.	.	8g\J	.	.	.	8e\J	.	.	.	.	.	.	.
!LO:SIC:v:t=custos d	!	!	!	!	!	!	!	!	!	!	!	!	!	!	!
!LO:LB:g=original	!	!	!	!	!	!	!	!	!	!	!	!	!	!	!
=56-	=56-	=56-	=56-	=56-	=56-	=56-	=56-	=56-	=56-	=56-	=56-	=56-	=56-	=56-	=56-
1d	mun-	1d	mun-	2a\	-la	.	.	1d	.	1a	.	1dd	mun-	.	.
.	.	.	.	.	.	.	.	.	.	.	.	.	.	8ffny\L	.
.	.	.	.	.	.	.	.	.	.	.	.	.	.	8ee\J	.
!	!	!	!	!	!	!	!	!	!	!	!	!	!	!LO:TX:b:t=P:problem:# below	!
.	.	.	.	2dd\	mun-	2dd\	mun-	.	.	.	.	.	.	2ff#X\	.
!	!	!	!	!LO:SIC:v:t=custos dd	!	!	!	!	!	!	!	!	!	!	!
!	!	!	!	!LO:LB:g=original	!	!	!	!	!	!	!	!	!	!	!
=57-	=57-	=57-	=57-	=57-	=57-	=57-	=57-	=57-	=57-	=57-	=57-	=57-	=57-	=57-	=57-
1G	-da	1d	-da	1dd	-da	1dd	-da	2g,>\	-da	2g,>\	-da	2dd,>\	-da	2gg,>\	-da
.	.	.	.	.	.	.	.	2G/	et	2g\	et	2b-\	et	2dd\	et
=58-	=58-	=58-	=58-	=58-	=58-	=58-	=58-	=58-	=58-	=58-	=58-	=58-	=58-	=58-	=58-
00r	.	00r	.	00r	.	00r	.	2.c/	tri-	2.g\	tri-	2.cc\	tri-	2.ee\	tri-
.	.	.	.	.	.	.	.	4c/	-bu-	4g\	-bu-	4cc\	-bu-	4ee\	-bu-
!	!	!	!	!	!	!	!	!	!	!	!	!LO:SIC:v:t=custos cc	!	!	!
!	!	!	!	!	!	!	!	!	!	!	!	!LO:LB:g=original	!	!	!
=59-	=59-	=59-	=59-	=59-	=59-	=59-	=59-	=59-	=59-	=59-	=59-	=59-	=59-	=59-	=59-
.	.	.	.	.	.	.	.	1F	-ens	1a	-ens	1cc	-ens	2ffny,>\	-ens
.	.	.	.	.	.	.	.	.	.	.	.	.	.	4ff\	e-
.	.	.	.	.	.	.	.	.	.	.	.	.	.	4ee\	.
=60-	=60-	=60-	=60-	=60-	=60-	=60-	=60-	=60-	=60-	=60-	=60-	=60-	=60-	=60-	=60-
.	.	.	.	.	.	.	.	1B-	e-	2b-\	e-	4b-\	e-	1dd	.
.	.	.	.	.	.	.	.	.	.	.	.	4cc\	.	.	.
.	.	.	.	.	.	.	.	.	.	4f\	.	2.dd\	.	.	.
.	.	.	.	.	.	.	.	.	.	4g\	.	.	.	.	.
=61-	=61-	=61-	=61-	=61-	=61-	=61-	=61-	=61-	=61-	=61-	=61-	=61-	=61-	=61-	=61-
.	.	.	.	.	.	.	.	1A	-is	1a,>	-is	.	.	1ee	-is
.	.	.	.	.	.	.	.	.	.	.	.	8cc\L	.	.	.
.	.	.	.	.	.	.	.	.	.	.	.	8b-\J	.	.	.
!	!	!	!	!	!	!	!	!	!	!	!	!LO:TX:b:t=P:problem:# below	!	!	!
.	.	.	.	.	.	.	.	.	.	.	.	2cc#X\	.	.	.
!	!	!	!	!	!	!	!	!	!	!	!	!	!	!LO:SIC:v:t=custos dd	!
!	!	!	!	!	!	!	!	!	!	!	!	!	!	!LO:LB:g=original	!
=62-	=62-	=62-	=62-	=62-	=62-	=62-	=62-	=62-	=62-	=62-	=62-	=62-	=62-	=62-	=62-
00r	.	00r	.	00r	.	00r	.	2d\	cha-	2a\	cha-	2dd,>\	-is	2dd\	cha-
.	.	.	.	.	.	.	.	2.B-/	-riſ-	2.b-\	-riſ-	2.dd\	cha-	4dd\	-ri-
.	.	.	.	.	.	.	.	.	.	.	.	.	.	4ee\	.
=63-	=63-	=63-	=63-	=63-	=63-	=63-	=63-	=63-	=63-	=63-	=63-	=63-	=63-	=63-	=63-
.	.	.	.	.	.	.	.	.	.	.	.	.	.	4ff\	.
.	.	.	.	.	.	.	.	4B-/	-ma-	4b-\	-ma-	4dd\	-ris-	4dd\	.
.	.	.	.	.	.	.	.	2c/	-(tum)	2g\	.	4ccny\	.	2gg\	-ſma-
.	.	.	.	.	.	.	.	.	.	.	.	4b-\	-ma-	.	.
!	!	!	!	!	!	!	!	!LO:PB:g=original	!	!	!	!	!	!	!
=64-	=64-	=64-	=64-	=64-	=64-	=64-	=64-	=64-	=64-	=64-	=64-	=64-	=64-	=64-	=64-
!	!	!	!	!	!	!	!	!	!	!	!	!	!	!LO:TX:b:t=P:problem:# below	!
.	.	.	.	.	.	.	.	0d	do-	4d/	-tum	1a	-tum	2ff#X\	.
.	.	.	.	.	.	.	.	.	.	4e/	.	.	.	.	.
.	.	.	.	.	.	.	.	.	.	4f\	.	.	.	1gg\	-tum
.	.	.	.	.	.	.	.	.	.	4g\	.	.	.	.	.
=65-	=65-	=65-	=65-	=65-	=65-	=65-	=65-	=65-	=65-	=65-	=65-	=65-	=65-	=65-	=65-
.	.	.	.	.	.	.	.	.	.	1a	do-	1dd	do-	.	.
!	!	!	!	!	!	!	!	!	!	!	!	!	!	!LO:TX:b:t=P:problem:# below	!
.	.	.	.	.	.	.	.	.	.	.	.	.	.	2ff#X\	do-
=66-	=66-	=66-	=66-	=66-	=66-	=66-	=66-	=66-	=66-	=66-	=66-	=66-	=66-	=66-	=66-
4r	.	4r	.	4r	.	4r	.	2G/	-na	2g\	-na	2dd\	-na	2gg\	-na
4G/	Al-	4g\	Al-	4b-\	Al-	4dd\	Al-	.	.	.	.	.	.	.	.
!	!	!	!	!	!	!	!	!	!	!	!	!	!	!LO:TX:t=P:problem:pauza niewidoczna	!
4c/	-l(e-	4g\	-l(e-	4cc\	-l(e-	4ee-X\	-l(e-	2r	.	2r	.	2r	.	2r	.
!	!	!LO:TX:a:t=P:problem:# above	!	!	!	!	!	!	!	!	!	!	!	!	!
4d\	-lu-	4f#X\	-lu-	4a\	-lu-	4dd\	-lu-	.	.	.	.	.	.	.	.
=67-	=67-	=67-	=67-	=67-	=67-	=67-	=67-	=67-	=67-	=67-	=67-	=67-	=67-	=67-	=67-
2G/	-i)a	2g\	-i)a	2b-\	-i)a	2dd\	-i)a	4r	.	4r	.	4r	.	4r	.
.	.	.	.	.	.	.	.	4G/	Al-	4b-\	Al-	4dd\	Al-	4gg\	Al-
2r	.	2r	.	2r	.	2r	.	4c/	-l(e-	4cc\	-l(e-	4ee-X\	-l(e-	4gg\	-l(e-
!	!	!	!	!	!	!	!	!	!	!	!	!	!	!LO:TX:b:t=P:problem:# below	!
.	.	.	.	.	.	.	.	4d\	-lu-	4a\	-lu-	4dd\	-lu-	4ff#X\	-lu-
=68-	=68-	=68-	=68-	=68-	=68-	=68-	=68-	=68-	=68-	=68-	=68-	=68-	=68-	=68-	=68-
!	!	!	!	!	!	!	!	!	!	!LO:N:acc=#	!	!	!	!	!
!	!	!	!	!	!	!	!	!	!	!LO:TX:a:t=P:problem:# above	!	!	!	!	!
4r	.	4r	.	4r	.	4r	.	2G/	-i)a	2bn\	-i)a	2dd\	-i)a	2gg\	-i)a
4g\	Al-	4b-y\	Al-	4dd\	Al-	4gg\	Al-	.	.	.	.	.	.	.	.
!	!	!	!	!	!	!	!	!	!	!LO:PB:g=original	!	!	!	!	!
4c/	-l(e-	4cc\	-l(e-	4ee-X\	-l(e-	4gg\	-l(e-	2r	.	2r	.	2r	.	2r	.
!	!	!	!	!	!	!LO:TX:b:t=P:problem:# below	!	!	!	!	!	!	!	!	!
4d\	-lu-	4a\	-lu-	4dd\	-lu-	4ff#X\	-lu-	.	.	.	.	.	.	.	.
=69-	=69-	=69-	=69-	=69-	=69-	=69-	=69-	=69-	=69-	=69-	=69-	=69-	=69-	=69-	=69-
!	!	!LO:N:acc=#	!	!	!	!	!	!	!	!	!	!	!	!	!
!	!	!LO:TX:b:t=P:problem:# below	!	!	!	!	!	!	!	!	!	!	!	!	!
2G/	-i)a	2bn\	-i)a	2dd\	-i)a	2gg\	-i)a	4r	.	4r	.	4r	.	4r	.
.	.	.	.	.	.	.	.	4G/	Al-	4b-y\	Al-	4dd\	Al-	4dd\	Al-
2r	.	2r	.	2r	.	2r	.	4d\	-l(e-	4a\	-l(e-	4dd\	-l(e-	4ffny\	-l(e-
!	!	!	!	!	!	!	!	!	!	!	!	!LO:TX:b:t=P:problem:# below	!	!	!
.	.	.	.	.	.	.	.	4e-X\	-lu-	4g\	-lu-	4cc#X\	-lu-	4gg\	-lu-
=70-	=70-	=70-	=70-	=70-	=70-	=70-	=70-	=70-	=70-	=70-	=70-	=70-	=70-	=70-	=70-
!	!	!	!	!	!	!	!	!	!	!	!	!	!	!LO:TX:b:t=P:problem:# below	!
4r	.	4r	.	4r	.	4r	.	2d\	-i)a	2a\	-i)a	2dd\	-i)a	2ff#X\	-i)a
!	!	!LO:TX:b:t=P:problem:# below	!	!	!	!	!	!	!	!	!	!	!	!	!
4d\	Al-	4f#X\	Al-	4a\	Al-	4dd\	Al-	.	.	.	.	.	.	.	.
!	!	!LO:SIC:v:t=custos g	!	!	!	!	!	!	!	!	!	!	!	!	!
!	!	!LO:LB:g=original	!	!	!	!	!	!	!	!	!	!	!	!	!
4G/	-l(e-	4g\	-l(e-	4b-\	-l(e-	4dd\	-l(e-	2r	.	2r	.	2r	.	2r	.
!	!	!	!	!	!	!LO:TX:b:t=P:problem:# below	!	!	!	!	!	!	!	!	!
4A/	-lu-	4e/	-lu-	4a\	-lu-	4cc#X\	-lu-	.	.	.	.	.	.	.	.
=71-	=71-	=71-	=71-	=71-	=71-	=71-	=71-	=71-	=71-	=71-	=71-	=71-	=71-	=71-	=71-
2d\	-i)a	2fny\	-i)a	2a\	-i)a	2dd\	-i)a	4r	.	4r	.	4r	.	4r	.
.	.	.	.	.	.	.	.	4d\	Al-	4a\	Al-	4dd\	Al-	4ffny\	Al-
2r	.	2r	.	2r	.	2r	.	4B-/	-l(e-	4b-\	-l(e-	4dd\	-l(e-	4dd\	-l(e-
!	!	!	!	!	!	!	!	!	!	!	!	!LO:SIC:v:t=custos cc	!	!	!
!	!	!	!	!	!	!	!	!	!	!	!	!LO:LB:g=original	!	!	!
.	.	.	.	.	.	.	.	4c/	-lu-	4g\	-lu-	4ccny\	-lu-	4ee\	-lu-
=72-	=72-	=72-	=72-	=72-	=72-	=72-	=72-	=72-	=72-	=72-	=72-	=72-	=72-	=72-	=72-
2r	.	2r	.	2r	.	2r	.	2d\	-i)a	2f,>\	-i)a	2a,>\	-i)a	2ff\	-i)a
!	!	!	!	!	!	!	!	!	!	!	!	!	!	!LO:SIC:v:t=custos dd	!
!	!	!	!	!	!	!	!	!	!	!	!	!	!	!LO:LB:g=original	!
4B-/	Al-	2d/	Al-	2dd\	Al-	2ffny\	Al-	1B-/	Al-	2.f\	Al-	1b-\	Al-	4dd\	Al-
4c/	.	.	.	.	.	.	.	.	.	.	.	.	.	4ee\	.
=73-	=73-	=73-	=73-	=73-	=73-	=73-	=73-	=73-	=73-	=73-	=73-	=73-	=73-	=73-	=73-
4d\	-l(e-	2.f\	-l(e-	2b-\	-l(e-	2dd\	.	.	.	.	.	.	.	2.ff\	.
4eny\	.	.	.	.	.	.	.	.	.	4g\	-l(e-	.	.	.	.
2f\	.	.	.	2a\	-lu-	4ccny\	-l(e-	2F/	-l(e-	4g\	-lu-	2cc\	-l(e-	.	.
.	.	4c/	-lu-	.	.	4dd\	.	.	.	4g,\	-i)a	.	.	8ee\L	-l(e-
.	.	.	.	.	.	.	.	.	.	.	.	.	.	8dd\J	.
=74-	=74-	=74-	=74-	=74-	=74-	=74-	=74-	=74-	=74-	=74-	=74-	=74-	=74-	=74-	=74-
4c/	-lu-	2c,>/	-i)a	2cc,>\	-i)a	4eeny\	.	2.c/	-lu-	2.e/	Al-	4g/	.	4cc\	.
4d\	.	.	.	.	.	4ff\	.	.	.	.	.	4a\	.	4dd\	.
4e\	-i)a	1g\	Al-	4g/	Al-	1gg\	-lu-	.	.	.	.	4b-\	.	4ee\	.
4f\	.	.	.	4a\	.	.	.	8B-/L	-i)a	4f\	-l(e-	4cc\	.	4ff\	.
.	.	.	.	.	.	.	.	8A/J	.	.	.	.	.	.	.
=75-	=75-	=75-	=75-	=75-	=75-	=75-	=75-	=75-	=75-	=75-	=75-	=75-	=75-	=75-	=75-
2.g\	Al-	.	.	4b-\	.	.	.	4G/	Al-	2g\	-lu-	2.dd\	-lu-	1gg	-lu-
.	.	.	.	4cc\	.	.	.	4A/	.	.	.	.	.	.	.
.	.	2d/	.	1dd\	-l(e-	4dd\	.	4B-/	-l(e-	2g,>\	-i)a	.	.	.	.
8f\L	.	.	.	.	.	4ee\	.	4G/	.	.	.	8cc\L	.	.	.
8e\J	.	.	.	.	.	.	.	.	.	.	.	8b-\J	.	.	.
=76-	=76-	=76-	=76-	=76-	=76-	=76-	=76-	=76-	=76-	=76-	=76-	=76-	=76-	=76-	=76-
!	!	!	!	!	!	!	!	!	!	!	!	!	!	!LO:TX:b:t=P:problem:# below	!
*	*	*	*	*	*	*	*	*lig	*	*	*	*	*	*	*
1d	-l(e-	2d/	-l(e-	.	.	2ff\	-i)a	1d	-lu-	1.a	Al-	2a\	-i)a	2ff#X,>\	-i)a
!	!	!	!	!	!	!LO:SIC:v:t=custos dd	!	!	!	!	!	!	!	!	!
!	!	!	!	!	!	!LO:LB:g=original	!	!	!	!	!	!	!	!	!
.	.	2a\	-lu-	2a\	.	2dd\	Al-	.	.	.	.	2.dd\	Al-	4gg\	Al-
.	.	.	.	.	.	.	.	.	.	.	.	.	.	4ff#\	.
=77-	=77-	=77-	=77-	=77-	=77-	=77-	=77-	=77-	=77-	=77-	=77-	=77-	=77-	=77-	=77-
1g	-lu-	1.a,>	-i)a	1a	-lu-	4gg\	-l(e-	1A	.	.	.	.	.	4ee\	-l(e-
.	.	.	.	.	.	4ff\	.	.	.	.	.	8cc\L	-l(e-	4dd\	.
.	.	.	.	.	.	.	.	.	.	.	.	8b-\J	.	.	.
.	.	.	.	.	.	2ee\	-lu-	.	.	2a\	-l(e-	2cc#X\	-lu-	2ee\	-lu-
!	!	!	!	!	!	!	!	!	!	!	!	!LO:TX:b:t=P:problem:# below	!	!	!
*	*	*	*	*	*	*	*	*Xlig	*	*	*	*	*	*	*
=78-	=78-	=78-	=78-	=78-	=78-	=78-	=78-	=78-	=78-	=78-	=78-	=78-	=78-	=78-	=78-
!	!	!	!	!	!	!	!	!	!	!	!	!	!	!LO:TX:b:t=P:problem:# below	!
2d,>\	-i)a	.	.	2a,>\	-i)a	2dd,>\	-i)a	1d	-i)a	2a\	-lu-	1dd	-i)a	1ff#X	-i)a
!	!	!	!	!LO:SIC:v:t=custos dd	!	!	!	!	!	!	!	!	!	!	!
!	!	!	!	!LO:LB:g=original	!	!	!	!	!	!	!	!	!	!	!
2d\	in-	2a\	in-	2dd\	in-	2ff\	in-	.	.	2a\	-i)a	.	.	.	.
!	!	!	!	!	!	!	!	!LO:SIC:v:t=custos B-	!	!	!	!	!	!	!
!	!	!	!	!	!	!	!	!LO:LB:g=original	!	!	!	!	!	!	!
=79-	=79-	=79-	=79-	=79-	=79-	=79-	=79-	=79-	=79-	=79-	=79-	=79-	=79-	=79-	=79-
4B-/	-ve-	4b-y\	-ve-	4dd\	-ve-	4dd\	-ve-	0r	.	0r	.	0r	.	0r	.
4c/	-nit	4g\	-nit	4cc\	-nit	4ee\	-nit	.	.	.	.	.	.	.	.
!LO:SIC:v:t=custos d	!	!	!	!	!	!	!	!	!	!	!	!	!	!	!
!LO:LB:g=original	!	!	!	!	!	!	!	!	!	!	!	!	!	!	!
!	!	!LO:TX:b:t=P:problem:# below	!	!	!	!	!	!	!	!	!	!	!	!	!
2d\	e-	2f#X\	e-	2a\	e-	2ff\	e-	.	.	.	.	.	.	.	.
=80-	=80-	=80-	=80-	=80-	=80-	=80-	=80-	=80-	=80-	=80-	=80-	=80-	=80-	=80-	=80-
4G/	-os	4g,>\	-os	4b-\	-os	4dd\	-os	.	.	.	.	.	.	.	.
4c/	con-	8g\L	con-	4cc\	con-	4ee\	con-	.	.	.	.	.	.	.	.
.	.	8a\J	.	.	.	.	.	.	.	.	.	.	.	.	.
2B-/	-cor-	2b-\	-cor-	2dd\	-cor-	2ff\	-cor-	.	.	.	.	.	.	.	.
=81-	=81-	=81-	=81-	=81-	=81-	=81-	=81-	=81-	=81-	=81-	=81-	=81-	=81-	=81-	=81-
1B-	-des	1b-	-des	1dd	-des	1ff	-des	4r	.	4r	.	4r	.	4r	.
.	.	.	.	.	.	.	.	4B-/	con-	4b-\	con-	4dd\	con-	4ffny\	con-
.	.	.	.	.	.	.	.	2B-/	-cor-	2b-\	-cor-	2dd\	-cor-	2ff\	-cor-
=82-	=82-	=82-	=82-	=82-	=82-	=82-	=82-	=82-	=82-	=82-	=82-	=82-	=82-	=82-	=82-
4r	.	4r	.	4r	.	4r	.	1B-	-des	1b-	-des	1dd	-des	1ff	-des
4B-/	con-	4b-\	con-	4dd\	con-	4ff\	con-	.	.	.	.	.	.	.	.
2.B-/	-cor-	2.b-\	-cor-	2.dd\	-cor-	2.ff\,>	-cor-	.	.	.	.	.	.	.	.
=83-	=83-	=83-	=83-	=83-	=83-	=83-	=83-	=83-	=83-	=83-	=83-	=83-	=83-	=83-	=83-
.	.	.	.	.	.	.	.	1r	.	1r	.	1r	.	1r	.
4f\	-des	4a\	-des	4cc\	-des	4ff\	-des	.	.	.	.	.	.	.	.
4g\	cha-	4g\	cha-	4b-\	cha-	4dd\	cha-	.	.	.	.	.	.	.	.
4e-X\	-ri-	4g\	-ri-	4b-\	-ri-	4ee-X\	-ri-	.	.	.	.	.	.	.	.
=84-	=84-	=84-	=84-	=84-	=84-	=84-	=84-	=84-	=84-	=84-	=84-	=84-	=84-	=84-	=84-
2f\	-ta-	2fny\	-ta-	2a\	-ta-	2cc\	-ta-	2r	.	2r	.	2r	.	2r	.
2B-/	-te	2f\	-te	2b-\	-te	2dd\	-te	4r	.	4r	.	4r	.	4r	.
.	.	.	.	.	.	.	.	4B-/	con-	4b-\	con-	4dd\	con-	4ff\	con-
!	!	!	!	!	!	!	!	!	!	!LO:SIC:v:t=custos b-	!	!	!	!	!
!	!	!	!	!	!	!	!	!	!	!LO:LB:g=original	!	!	!	!	!
=85-	=85-	=85-	=85-	=85-	=85-	=85-	=85-	=85-	=85-	=85-	=85-	=85-	=85-	=85-	=85-
0r	.	0r	.	0r	.	0r	.	2.B-/	-cor-	2.b-\	-cor-	2.dd\	-cor-	2.ff\	-cor-
.	.	.	.	.	.	.	.	4f\	-des	4a\	-des	4ccny\	-des	4ff\	-deſ
=86-	=86-	=86-	=86-	=86-	=86-	=86-	=86-	=86-	=86-	=86-	=86-	=86-	=86-	=86-	=86-
.	.	.	.	.	.	.	.	4g\	cha-	4g\	cha-	4b-\	cha-	4dd\	cha-
.	.	.	.	.	.	.	.	4e-X\	-ri-	4g\	-ri-	2b-\	-ri-	4ee-X\	-ri-
!	!	!	!	!	!	!	!	!	!	!	!	!	!	!LO:SIC:v:t=custos cc	!
!	!	!	!	!	!	!	!	!	!	!	!	!	!	!LO:LB:g=original	!
.	.	.	.	.	.	.	.	2f\	-ta-	2f\	-ta-	.	.	2cc\	-ta-
.	.	.	.	.	.	.	.	.	.	.	.	4a\	-ta-	.	.
!	!	!	!	!	!	!	!	!	!	!	!	!LO:SIC:v:t=custos b-	!	!	!
!	!	!	!	!	!	!	!	!	!	!	!	!LO:LB:g=original	!	!	!
=87-	=87-	=87-	=87-	=87-	=87-	=87-	=87-	=87-	=87-	=87-	=87-	=87-	=87-	=87-	=87-
2r	.	2r	.	2r	.	2r	.	1B-	-te	1f	-te	1b-	-te	1dd	-te
2B-/	gra-	2b-\	gra-	2dd\	gra-	2dd\	gra-	.	.	.	.	.	.	.	.
!	!	!LO:SIC:v:t=custos b-	!	!	!	!	!	!	!	!	!	!	!	!	!
!	!	!LO:LB:g=original	!	!	!	!	!	!	!	!	!	!	!	!	!
=88-	=88-	=88-	=88-	=88-	=88-	=88-	=88-	=88-	=88-	=88-	=88-	=88-	=88-	=88-	=88-
2G/	-ti-	2b-\	-ti-	2b-\	-ti-	2eeny\	-ti-	00r	.	00r	.	00r	.	00r	.
2F/	-a	2a\	-a	2cc\	-a	2.ff\	-a	.	.	.	.	.	.	.	.
=89-	=89-	=89-	=89-	=89-	=89-	=89-	=89-	=89-	=89-	=89-	=89-	=89-	=89-	=89-	=89-
1c	De-	1g	De-	1cc	De-	.	.	.	.	.	.	.	.	.	.
.	.	.	.	.	.	8ee\L	.	.	.	.	.	.	.	.	.
.	.	.	.	.	.	8dd\J	.	.	.	.	.	.	.	.	.
.	.	.	.	.	.	2ee\	De-	.	.	.	.	.	.	.	.
=90-	=90-	=90-	=90-	=90-	=90-	=90-	=90-	=90-	=90-	=90-	=90-	=90-	=90-	=90-	=90-
2F/	-i	2a,>\	-i	2cc,>\	-i	2ff,>\	-i	.	.	.	.	.	.	.	.
2f\	in	2a\	in	2cc\	in	2ff\	in	.	.	.	.	.	.	.	.
!	!	!	!	!	!	!LO:SIC:v:t=custos ff	!	!	!	!	!	!	!	!	!
!	!	!	!	!	!	!LO:LB:g=original	!	!	!	!	!	!	!	!	!
=91-	=91-	=91-	=91-	=91-	=91-	=91-	=91-	=91-	=91-	=91-	=91-	=91-	=91-	=91-	=91-
4d\	un-	4f\	un-	4dd\	un-	4ff\	un-	.	.	.	.	.	.	.	.
4eny\	.	4g\	.	4cc\	.	4ee\	.	.	.	.	.	.	.	.	.
4f\	.	4a\	.	4a\	.	4dd\	.	.	.	.	.	.	.	.	.
4e\	.	4g\	.	4cc\	.	4ee\	.	.	.	.	.	.	.	.	.
=92-	=92-	=92-	=92-	=92-	=92-	=92-	=92-	=92-	=92-	=92-	=92-	=92-	=92-	=92-	=92-
4d\	.	4f\	.	4dd\	.	4ff\	.	0r	.	0r	.	0r	.	0r	.
4c/	.	4g\	.	4g/	.	4ee\	.	.	.	.	.	.	.	.	.
4B-/	.	2f\	.	4b-\	.	4dd\	.	.	.	.	.	.	.	.	.
4A/	.	.	.	4cc\	.	4cc\	.	.	.	.	.	.	.	.	.
!	!	!	!	!LO:SIC:v:t=custos b-	!	!	!	!	!	!	!	!	!	!	!
!	!	!	!	!LO:PB:g=original	!	!	!	!	!	!	!	!	!	!	!
=93-	=93-	=93-	=93-	=93-	=93-	=93-	=93-	=93-	=93-	=93-	=93-	=93-	=93-	=93-	=93-
1B-	.	1b-	.	4b-\	.	2.dd\	.	.	.	.	.	.	.	.	.
.	.	.	.	4cc\	.	.	.	.	.	.	.	.	.	.	.
.	.	.	.	2dd\	.	.	.	.	.	.	.	.	.	.	.
.	.	.	.	.	.	4ee\	.	.	.	.	.	.	.	.	.
=94-	=94-	=94-	=94-	=94-	=94-	=94-	=94-	=94-	=94-	=94-	=94-	=94-	=94-	=94-	=94-
1F	-dans.	1a	-dans	1cc	-dans	1ff	-dans	2r	.	2r	.	2r	.	2r	.
.	.	.	.	.	.	.	.	2f\	in	2a\	in	2cc\	in	2ff\	in
=95-	=95-	=95-	=95-	=95-	=95-	=95-	=95-	=95-	=95-	=95-	=95-	=95-	=95-	=95-	=95-
0r	.	0r	.	0r	.	0r	.	4d\	un-	4f\	un-	4dd\	un-	4ff\	un-
.	.	.	.	.	.	.	.	4eny\	.	4g\	.	8cc\L	.	4eeny\	.
.	.	.	.	.	.	.	.	.	.	.	.	8b-\J	.	.	.
.	.	.	.	.	.	.	.	4f\	.	4a\	.	4a\	.	4dd\	.
.	.	.	.	.	.	.	.	4e\	.	4g\	.	4cc\	.	4ee\	.
=96-	=96-	=96-	=96-	=96-	=96-	=96-	=96-	=96-	=96-	=96-	=96-	=96-	=96-	=96-	=96-
.	.	.	.	.	.	.	.	4d\	.	4f\	.	4dd\	.	4ff\	.
.	.	.	.	.	.	.	.	4c/	.	4g\	.	4g/	.	4ee\	.
.	.	.	.	.	.	.	.	4B-/	.	2f\	.	4b-\	.	4dd\	.
.	.	.	.	.	.	.	.	4A/	.	.	.	4cc\	.	4cc\	.
=97-	=97-	=97-	=97-	=97-	=97-	=97-	=97-	=97-	=97-	=97-	=97-	=97-	=97-	=97-	=97-
1r	.	1r	.	1r	.	1r	.	1B-	.	1b-	.	4b-\	.	2.dd\	.
.	.	.	.	.	.	.	.	.	.	.	.	4cc\	.	.	.
.	.	.	.	.	.	.	.	.	.	.	.	2dd\	.	.	.
.	.	.	.	.	.	.	.	.	.	.	.	.	.	4ee\	.
=98-	=98-	=98-	=98-	=98-	=98-	=98-	=98-	=98-	=98-	=98-	=98-	=98-	=98-	=98-	=98-
2r	.	2r	.	2r	.	2r	.	1F	-dans	1a	-dans	1cc	-dans	1ff	-dans
2f\	in	2a\	in	2cc\	in	2ff\	in	.	.	.	.	.	.	.	.
!LO:SIC:v:t=custos d	!	!	!	!	!	!	!	!	!	!	!	!	!	!	!
!LO:LB:g=original	!	!	!	!	!	!	!	!	!	!	!	!	!	!	!
=99-	=99-	=99-	=99-	=99-	=99-	=99-	=99-	=99-	=99-	=99-	=99-	=99-	=99-	=99-	=99-
4d\	un-	4f\	un-	4dd\	un-	4ff\	un-	00r	.	00r	.	00r	.	00r	.
4e\	.	8g\L	.	8cc\L	.	4ee\	.	.	.	.	.	.	.	.	.
.	.	8a\J	.	8b-\J	.	.	.	.	.	.	.	.	.	.	.
4f\	.	4g\	.	4a\	.	4dd\	.	.	.	.	.	.	.	.	.
4e\	.	4f\	.	4cc\	.	4ee\	.	.	.	.	.	.	.	.	.
=100-	=100-	=100-	=100-	=100-	=100-	=100-	=100-	=100-	=100-	=100-	=100-	=100-	=100-	=100-	=100-
4d\	.	4g\	.	4dd\	.	4ff\	.	.	.	.	.	.	.	.	.
4c/	.	4f\	.	4g/	.	4ee\	.	.	.	.	.	.	.	.	.
4B-/	.	4g\	.	4b-\	.	4dd\	.	.	.	.	.	.	.	.	.
4A/	.	4f\	.	4cc\	.	4cc\	.	.	.	.	.	.	.	.	.
=101-	=101-	=101-	=101-	=101-	=101-	=101-	=101-	=101-	=101-	=101-	=101-	=101-	=101-	=101-	=101-
1B-	.	1b-	.	4b-\	.	2.dd\	.	.	.	.	.	.	.	.	.
.	.	.	.	4cc\	.	.	.	.	.	.	.	.	.	.	.
.	.	.	.	2dd\	.	.	.	.	.	.	.	.	.	.	.
.	.	.	.	.	.	4ee\	.	.	.	.	.	.	.	.	.
=102-	=102-	=102-	=102-	=102-	=102-	=102-	=102-	=102-	=102-	=102-	=102-	=102-	=102-	=102-	=102-
2F/	-dans	2a,>\	-dans	2cc,>\	-dans	2ff,>\	-dans	.	.	.	.	.	.	.	.
2.c/	gra-	2.g\	gra-	2.cc\	gra-	2.ee\	gra-	.	.	.	.	.	.	.	.
=103-	=103-	=103-	=103-	=103-	=103-	=103-	=103-	=103-	=103-	=103-	=103-	=103-	=103-	=103-	=103-
.	.	.	.	.	.	.	.	0r	.	0r	.	0r	.	0r	.
4c/	-ti-	4g\	-ti-	4cc\	-ti-	4ee\	-ti-	.	.	.	.	.	.	.	.
2G/	-a	2g\	-a	2dd\	-a	2gg\	-a	.	.	.	.	.	.	.	.
=104-	=104-	=104-	=104-	=104-	=104-	=104-	=104-	=104-	=104-	=104-	=104-	=104-	=104-	=104-	=104-
2d\	De-	2a\	De-	2dd\	De-	4ff\	De-	.	.	.	.	.	.	.	.
.	.	.	.	.	.	4dd\	.	.	.	.	.	.	.	.	.
2e-X\	-i-	2a\	-i-	2cc\	-i-	2.gg\	-i-	.	.	.	.	.	.	.	.
=105-	=105-	=105-	=105-	=105-	=105-	=105-	=105-	=105-	=105-	=105-	=105-	=105-	=105-	=105-	=105-
1d	-ta-	1a	-ta-	1dd	-ta-	.	.	1r	.	1r	.	1r	.	1r	.
.	.	.	.	.	.	8ff\L	.	.	.	.	.	.	.	.	.
.	.	.	.	.	.	8ee\J	.	.	.	.	.	.	.	.	.
!	!	!	!	!	!	!LO:TX:b:t=P:problem:# below	!	!	!	!	!	!	!	!	!
.	.	.	.	.	.	2ff#X\	-ta-	.	.	.	.	.	.	.	.
=106-	=106-	=106-	=106-	=106-	=106-	=106-	=106-	=106-	=106-	=106-	=106-	=106-	=106-	=106-	=106-
1G	-tis	1a	-tis	1dd	-tis	1gg	-tis	2r	.	2r	.	2r	.	2r	.
.	.	.	.	.	.	.	.	2.G/	gra-	2.g\	gra-	2.b-\	gra-	2.dd\	gra-
!	!	!LO:SIC:v:t=custos b-	!	!	!	!LO:SIC:v:t=custos dd	!	!	!	!	!	!	!	!	!
!	!	!LO:LB:g=original	!	!	!	!LO:PB:g=original	!	!	!	!	!	!	!	!	!
=107-	=107-	=107-	=107-	=107-	=107-	=107-	=107-	=107-	=107-	=107-	=107-	=107-	=107-	=107-	=107-
0r	.	0r	.	0r	.	0r	.	.	.	.	.	.	.	.	.
.	.	.	.	.	.	.	.	4G/	-ti-	4g\	-ti-	4b-\	-ti-	4dd\	-ti-
!	!	!	!	!	!	!	!	!LO:SIC:v:t=custos c	!	!	!	!	!	!	!
!	!	!	!	!	!	!	!	!LO:LB:g=original	!	!	!	!	!	!	!
.	.	.	.	.	.	.	.	2c/	-a	4g\	-a	2cc\	-a	2ee\	-a
.	.	.	.	.	.	.	.	.	.	4a\	De-	.	.	.	.
=108-	=108-	=108-	=108-	=108-	=108-	=108-	=108-	=108-	=108-	=108-	=108-	=108-	=108-	=108-	=108-
.	.	.	.	.	.	.	.	2B-/	-De-	2b-\	-i-	2dd\	De-	4ff\	De-
.	.	.	.	.	.	.	.	.	.	.	.	.	.	4dd\	.
.	.	.	.	.	.	.	.	2G/	-i-	2b-\	-ta-	2dd\	-i-	2.gg\	-i-
=109-	=109-	=109-	=109-	=109-	=109-	=109-	=109-	=109-	=109-	=109-	=109-	=109-	=109-	=109-	=109-
1r	.	1r	.	1r	.	1r	.	1d	-ta-	1a	.	1dd	-ta-	.	.
.	.	.	.	.	.	.	.	.	.	.	.	.	.	8ff\L	-ta-
.	.	.	.	.	.	.	.	.	.	.	.	.	.	8ee\J	.
!	!	!	!	!	!	!	!	!	!	!	!	!	!	!LO:TX:b:t=P:problem:# below	!
.	.	.	.	.	.	.	.	.	.	.	.	.	.	2ff#X\	-ta-
=110-	=110-	=110-	=110-	=110-	=110-	=110-	=110-	=110-	=110-	=110-	=110-	=110-	=110-	=110-	=110-
!	!	!	!	!	!	!	!	!	!	!LO:N:acc=#	!	!	!	!	!
!	!	!	!	!	!	!	!	!	!	!LO:TX:b:t=P:problem:# below	!	!	!	!	!
2r	.	2r	.	2r	.	2r	.	1G	-tis	1bn	-tis	1dd	-tis	1gg	-tis
2G/	et	2b-\	et	2dd\	et	2dd\	et	.	.	.	.	.	.	.	.
=111-	=111-	=111-	=111-	=111-	=111-	=111-	=111-	=111-	=111-	=111-	=111-	=111-	=111-	=111-	=111-
2.c/	tri-	2.g\	tri-	2.cc\	tri-	2.ee\	tri-	00r	.	00r	.	00r	.	00r	.
4c/	-bu-	4g\	-bu-	4cc\	-bu-	4ee\	-bu-	.	.	.	.	.	.	.	.
!	!	!	!	!LO:SIC:v:t=custos cc	!	!	!	!	!	!	!	!	!	!	!
!	!	!	!	!LO:LB:g=original	!	!	!	!	!	!	!	!	!	!	!
=112-	=112-	=112-	=112-	=112-	=112-	=112-	=112-	=112-	=112-	=112-	=112-	=112-	=112-	=112-	=112-
1F	-ens	1a	-ens	1cc	-ens	2.ffny\	-ens	.	.	.	.	.	.	.	.
.	.	.	.	.	.	4ee\	e-	.	.	.	.	.	.	.	.
=113-	=113-	=113-	=113-	=113-	=113-	=113-	=113-	=113-	=113-	=113-	=113-	=113-	=113-	=113-	=113-
1B-	e-	2.f\	e-	1b-	e-	1dd	.	.	.	.	.	.	.	.	.
.	.	4g\	.	.	.	.	.	.	.	.	.	.	.	.	.
=114-	=114-	=114-	=114-	=114-	=114-	=114-	=114-	=114-	=114-	=114-	=114-	=114-	=114-	=114-	=114-
1A	-is	1a,>	-is	1cc	-is	1ee	-is	.	.	.	.	.	.	.	.
=115-	=115-	=115-	=115-	=115-	=115-	=115-	=115-	=115-	=115-	=115-	=115-	=115-	=115-	=115-	=115-
2d\	cha-	2a\	cha-	2dd,>\	.	2dd\	cha-	00r	.	00r	.	00r	.	00r	.
2.B-/	-riſ-	2.b-\	-riſ-	2.dd\	cha-	2.ff\	-ris-	.	.	.	.	.	.	.	.
=116-	=116-	=116-	=116-	=116-	=116-	=116-	=116-	=116-	=116-	=116-	=116-	=116-	=116-	=116-	=116-
4B-/	-ma-	4b-\	-ma-	4dd\	-ris-	4ff\	-ma-	.	.	.	.	.	.	.	.
2c/	-tum	2g\	.	4cc\	.	2ee\	.	.	.	.	.	.	.	.	.
.	.	.	.	4b-\	.	.	.	.	.	.	.	.	.	.	.
=117-	=117-	=117-	=117-	=117-	=117-	=117-	=117-	=117-	=117-	=117-	=117-	=117-	=117-	=117-	=117-
!	!	!	!	!	!	!LO:TX:b:t=P:problem:# below	!	!	!	!	!	!	!	!	!
0d	do-	2d/	-tum	2a\	-ma-	2ff#X\	.	.	.	.	.	.	.	.	.
.	.	2g\	.	2dd\	-tum	2.gg\	-tum	.	.	.	.	.	.	.	.
=118-	=118-	=118-	=118-	=118-	=118-	=118-	=118-	=118-	=118-	=118-	=118-	=118-	=118-	=118-	=118-
.	.	1a	do-	1dd	do-	.	.	.	.	.	.	.	.	.	.
.	.	.	.	.	.	8ffny\L	do-	.	.	.	.	.	.	.	.
.	.	.	.	.	.	8ee\J	.	.	.	.	.	.	.	.	.
!	!	!	!	!	!	!LO:TX:b:t=P:problem:# below	!	!	!	!	!	!	!	!	!
.	.	.	.	.	.	2ff#X\	.	.	.	.	.	.	.	.	.
!	!	!	!	!	!	!	!	!	!	!	!	!	!	!LO:SIC:v:t=custos gg	!
!	!	!	!	!	!	!	!	!	!	!	!	!	!	!LO:PB:g=original	!
=119-	=119-	=119-	=119-	=119-	=119-	=119-	=119-	=119-	=119-	=119-	=119-	=119-	=119-	=119-	=119-
2G/	-na	2g\	-na	2dd\	-na	2gg\	-na	4r	.	4r	.	4r	.	4r	.
.	.	.	.	.	.	.	.	4G/	Al-	4b-y\	Al-	4dd\	Al-	4gg\	Al-
!LO:SIC:v:t=custos G	!	!	!	!	!	!	!	!	!	!LO:SIC:v:t=custos cc	!	!	!	!	!
!LO:PB:g=original	!	!	!	!	!	!	!	!	!	!LO:LB:g=original	!	!	!	!	!
2r	.	2r	.	2r	.	2r	.	4c/	-l(e-	4cc\	-l(e-	4ee-X\	-l(e-	4gg\	-l(e-
!	!	!	!	!	!	!	!	!	!	!	!	!	!	!LO:TX:b:t=P:problem:# below	!
.	.	.	.	.	.	.	.	4d\	-lu-	4a\	-lu-	4dd\	-lu-	4ff#X\	-lu-
=120-	=120-	=120-	=120-	=120-	=120-	=120-	=120-	=120-	=120-	=120-	=120-	=120-	=120-	=120-	=120-
!	!	!	!	!	!	!	!	!	!	!LO:N:acc=#	!	!	!	!	!
!	!	!	!	!	!	!	!	!	!	!LO:TX:b:t=P:problem:# below	!	!	!	!	!
4r	.	4r	.	4r	.	4r	.	2G/	-i)a	2bn\	-i)a	2dd\	-i)a	2gg\	-i)a
4G/	Al-	4g\	Al-	4dd\	Al-	4dd\	Al-	.	.	.	.	.	.	.	.
!	!	!	!	!	!	!	!	!	!	!	!	!LO:SIC:v:t=custos b-	!	!	!
!	!	!	!	!	!	!	!	!	!	!	!	!LO:LB:g=original	!	!	!
4c/	-l(e-	4g\	-l(e-	4cc\	-l(e-	4ee-X\	-l(e-	2r	.	2r	.	2r	.	2r	.
!	!	!LO:TX:b:t=P:problem:# below	!	!	!	!	!	!	!	!	!	!	!	!	!
4d\	-lu-	4f#X\	-lu-	4a\	-lu-	4dd\	-lu-	.	.	.	.	.	.	.	.
=121-	=121-	=121-	=121-	=121-	=121-	=121-	=121-	=121-	=121-	=121-	=121-	=121-	=121-	=121-	=121-
!	!	!	!	!LO:N:acc=#	!	!	!	!	!	!	!	!	!	!	!
!	!	!	!	!LO:TX:b:t=P:problem:# below	!	!	!	!	!	!	!	!	!	!	!
2G/	-i)a	2g\	-i)a	2bn\	-i)a	2dd\	-i)a	4r	.	4r	.	4r	.	4r	.
.	.	.	.	.	.	.	.	4g\	Al-	4g\	Al-	4b-\	Al-	4dd\	Al-
2r	.	2r	.	2r	.	2r	.	4c/	-l(e-	4g\	-l(e-	4cc\	-l(e-	4ee-X\	-l(e-
!	!	!	!	!	!	!	!	!	!	!LO:TX:b:t=P:problem:# below	!	!	!	!	!
.	.	.	.	.	.	.	.	4d\	-lu-	4f#X\	-lu-	4a\	-lu-	4dd\	-lu-
=122-	=122-	=122-	=122-	=122-	=122-	=122-	=122-	=122-	=122-	=122-	=122-	=122-	=122-	=122-	=122-
!	!	!	!	!	!	!	!	!	!	!	!	!LO:N:acc=#	!	!	!
!	!	!	!	!	!	!	!	!	!	!	!	!LO:TX:b:t=P:problem:# below	!	!	!
4r	.	4r	.	4r	.	4r	.	2G/	-i)a	2g\	-i)a	2bn\	-i)a	2dd\	-i)a
4G/	Al-	4g\	Al-	4b-y\	Al-	4dd\	Al-	.	.	.	.	.	.	.	.
4d\	-l(e-	4d/	-l(e-	4a\	-l(e-	4dd\	-l(e-	2r	.	2r	.	2r	.	2r	.
4e-X\	-lu-	4g\	-lu-	4g/	-lu-	4cc\	-lu-	.	.	.	.	.	.	.	.
=123-	=123-	=123-	=123-	=123-	=123-	=123-	=123-	=123-	=123-	=123-	=123-	=123-	=123-	=123-	=123-
!	!	!LO:TX:b:t=P:problem:# below	!	!	!	!	!	!	!	!	!	!	!	!	!
2d\	-i)a	2f#X\	-i)a	2a\	-i)a	2dd\	-i)a	4r	.	4r	.	4r	.	4r	.
.	.	.	.	.	.	.	.	4d\	Al-	4a\	Al-	4dd\	Al-	4ffny\	Al-
!	!	!	!	!	!	!LO:SIC:v:t=custos ff	!	!	!	!	!	!	!	!	!
!	!	!	!	!	!	!LO:LB:g=original	!	!	!	!	!	!	!	!	!
2r	.	2r	.	2r	.	2r	.	4G/	-l(e-	4b-y\	-l(e-	4dd\	-l(e-	4gg\	-l(e-
!	!	!	!	!	!	!	!	!	!	!	!	!LO:TX:b:t=P:problem:# below	!	!	!
.	.	.	.	.	.	.	.	4A/	-lu-	4a\	-lu-	4cc#X\	-lu-	4eeny\	-lu-
=124-	=124-	=124-	=124-	=124-	=124-	=124-	=124-	=124-	=124-	=124-	=124-	=124-	=124-	=124-	=124-
!	!	!	!	!	!	!	!	!	!	!	!	!	!	!LO:TX:b:t=P:problem:# below	!
4r	.	4r	.	4r	.	4r	.	2d\	-i)a	2a\	-i)a	2dd\	-i)a	2ff#X\	-i)a
4d\	Al-	4b-\	Al-	4dd\	Al-	4ffny\	Al-	.	.	.	.	.	.	.	.
4B-/	-l(e-	4b-\	-l(e-	4dd\	-l(e-	4dd\	.	2r	.	2r	.	2r	.	2r	.
4c/	-lu-	4g\	-lu-	4cc\	-lu-	4eeny\	.	.	.	.	.	.	.	.	.
!	!	!LO:SIC:v:t=custos a	!	!	!	!	!	!	!	!	!	!	!	!	!
!	!	!LO:PB:g=original	!	!	!	!	!	!	!	!	!	!	!	!	!
=125-	=125-	=125-	=125-	=125-	=125-	=125-	=125-	=125-	=125-	=125-	=125-	=125-	=125-	=125-	=125-
2d,>\	-i)a	2a,>\	-i)a	2a\	-i)a	2.ff\	-l(e-	2B-/	Al-	1b-	Al-	2.dd\	Al-	2ffny\	Al-
!	!	!	!	!LO:SIC:v:t=custos b-	!	!	!	!	!	!	!	!	!	!	!
!	!	!	!	!LO:LB:g=original	!	!	!	!	!	!	!	!	!	!	!
1B-/	Al-	2d/	Al-	1b-\	Al-	.	.	2B-/	-l(e-	.	.	.	.	4dd\	-l(e-
.	.	.	.	.	.	4ee\	-lu-	.	.	.	.	4ccny\	.	4ee\	.
=126-	=126-	=126-	=126-	=126-	=126-	=126-	=126-	=126-	=126-	=126-	=126-	=126-	=126-	=126-	=126-
.	.	2.fny\	-l(e-	.	.	2dd,>\	-i)a	1f	-lu-	2b-\	-l(e-	2b-\	-lu-	2.ff\	-l(e-
2F/	-l(e-	.	.	2cc\	-l(e-	4cc\	Al-	.	.	2a\	.	2a\	-i)a	.	.
.	.	4c/	-lu-	.	.	4dd\	.	.	.	.	.	.	.	8ee\L	.
.	.	.	.	.	.	.	.	.	.	.	.	.	.	8dd\J	.
=127-	=127-	=127-	=127-	=127-	=127-	=127-	=127-	=127-	=127-	=127-	=127-	=127-	=127-	=127-	=127-
2.c/	-lu-	2c,>/	-i)a	4g/	-lu-	4ee\	.	1c	-i)a	2.g\	-lu-	2cc\	Al-	4cc\	-lu-
.	.	.	.	4a\	-i)a	4ff\	.	.	.	.	.	.	.	4dd\	.
.	.	2g\	Al-	4b-\	.	1gg\	-l(e-	.	.	.	.	4g/	.	4ee\	.
8B-/L	-i)a	.	.	4cc\	Al-	.	.	.	.	4a\	.	4a\	.	4ff\	.
8A/J	.	.	.	.	.	.	.	.	.	.	.	.	.	.	.
!	!	!	!	!	!	!	!	!LO:SIC:v:t=custos g	!	!	!	!	!	!	!
!	!	!	!	!	!	!	!	!LO:LB:g=original	!	!	!	!	!	!	!
=128-	=128-	=128-	=128-	=128-	=128-	=128-	=128-	=128-	=128-	=128-	=128-	=128-	=128-	=128-	=128-
4G/	Al-	2g\	-l(e-	1.dd	-l(e-	.	.	2.g\	Al-	1b-,>	-i)a	4b-\	.	1gg	-i)a
4A/	.	.	.	.	.	.	.	.	.	.	.	4cc\	.	.	.
4B-/	-l(e-	2d/	-lu-	.	.	4dd\	-lu-	.	.	.	.	2dd\	-l(e-	.	.
4G/	.	.	.	.	.	4ee\	.	8f\L	.	.	.	.	.	.	.
.	.	.	.	.	.	.	.	8e\J	.	.	.	.	.	.	.
!	!	!	!	!	!	!	!	!	!	!	!	!	!	!LO:SIC:v:t=custos ff	!
!	!	!	!	!	!	!	!	!	!	!	!	!	!	!LO:LB:g=original	!
=129-	=129-	=129-	=129-	=129-	=129-	=129-	=129-	=129-	=129-	=129-	=129-	=129-	=129-	=129-	=129-
*lig	*	*	*	*	*	*	*	*	*	*	*	*	*	*	*
1d	-lu-	2d,>/	-i)a	.	.	2ff,>\	-i)a	4d\	-l(e-	4a\	Al-	2a\	.	2ff\	Al-
.	.	.	.	.	.	.	.	4e\	.	4g\	-l(e-	.	.	.	.
.	.	2a\	Al-	2a\	-lu-	2dd\	Al-	4f\	.	4a\	-lu-	2.dd\	.	4gg\	-l(e-
.	.	.	.	.	.	.	.	4g\	.	4b-\	-i)a	.	.	4ff\	.
=130-	=130-	=130-	=130-	=130-	=130-	=130-	=130-	=130-	=130-	=130-	=130-	=130-	=130-	=130-	=130-
1A	.	2a\	-l(e-	1a,>	-i)a	4gg\	-l(e-	1a	-lu-	1a	Al-	.	.	4ee\	.
.	.	.	.	.	.	4ff\	.	.	.	.	.	8cc\L	-lu-	4dd\	.
.	.	.	.	.	.	.	.	.	.	.	.	8b-\J	.	.	.
!	!	!	!	!	!	!	!	!	!	!	!	!LO:TX:b:t=P:problem:# below	!	!	!
.	.	2a\	-lu-	.	.	2ee\	-lu-	.	.	.	.	2cc#X\	.	2ee\	-lu-
*Xlig	*	*	*	*	*	*	*	*	*	*	*	*	*	*	*
=131-	=131-	=131-	=131-	=131-	=131-	=131-	=131-	=131-	=131-	=131-	=131-	=131-	=131-	=131-	=131-
!	!	!	!	!	!	!	!	!	!	!	!	!	!	!LO:TX:b:t=P:problem:# below	!
2d,>\	-i)a	2a\	-i)a	2a\	Al-	2dd,>\	-i)a	2d\	.	2a\	-l(e-	2dd,>\	-i)a	2ff#X,>\	-i)a
!	!	!	!	!	!	!	!	!	!	!LO:SIC:v:t=custos g	!	!	!	!	!
!	!	!	!	!	!	!	!	!	!	!LO:LB:g=original	!	!	!	!	!
1G/	Al-	2r	.	1b-\	-l(e-	1dd\	Al-	1g\,>	-i)a	1g\	-lu-	2dd\	Al-	1dd\	Al-
=132-	=132-	=132-	=132-	=132-	=132-	=132-	=132-	=132-	=132-	=132-	=132-	=132-	=132-	=132-	=132-
.	.	2r	.	.	.	.	.	.	.	.	.	2dd\	-l(e-	.	.
2G/	-l(e-	1a\	Al-	2b-\	-lu-	2dd\	-l(e-	2g\	Al-	2g\	-i)a	2dd\	-lu-	2dd\	-l(e-
!LO:SIC:v:t=custos c	!	!	!	!	!	!	!	!	!	!	!	!	!	!	!
!LO:LB:g=original	!	!	!	!	!	!	!	!	!	!	!	!	!	!	!
=133-	=133-	=133-	=133-	=133-	=133-	=133-	=133-	=133-	=133-	=133-	=133-	=133-	=133-	=133-	=133-
2.c/	-lu-	.	.	1cc,>	-i)a	2cc\	-lu-	4c/	-l(e-	0g	Al-	2ccny,>\	-i)a	4ee\	.
.	.	.	.	.	.	.	.	4d\	.	.	.	.	.	4ffny\	.
.	.	2d/	-l(e-	.	.	2cc,>\	-i)a	4e\	.	.	.	2cc\	Al-	1gg\	.
8B-/L	-i)a	.	.	.	.	.	.	4f\	.	.	.	.	.	.	.
8A/J	.	.	.	.	.	.	.	.	.	.	.	.	.	.	.
=134-	=134-	=134-	=134-	=134-	=134-	=134-	=134-	=134-	=134-	=134-	=134-	=134-	=134-	=134-	=134-
4G/	Al-	0d	-lu-	4b-\	Al-	1dd	Al-	1g	.	.	.	1.b-	-l(e-	.	.
4A/	.	.	.	4cc\	.	.	.	.	.	.	.	.	.	.	.
4B-/	-l(e-	.	.	4dd\	.	.	.	.	.	.	.	.	.	4ff\	.
4c/	.	.	.	4b-\	.	.	.	.	.	.	.	.	.	4ee\	.
=135-	=135-	=135-	=135-	=135-	=135-	=135-	=135-	=135-	=135-	=135-	=135-	=135-	=135-	=135-	=135-
!	!	!	!	!	!	!	!	!	!	!LO:TX:b:t=P:problem:# below	!	!	!	!LO:TX:b:t=P:problem:# below	!
1d	-lu-	.	.	4a\	-l(e-	2dd\	-l(e-	1d	-lu-	4f#X\	-l(e-	.	.	1ff#X	-lu-
.	.	.	.	4g/	.	.	.	.	.	4g\	.	.	.	.	.
.	.	.	.	2a\	-lu-	2dd\	-lu-	.	.	2a\	-lu-	2dd\	-lu-	.	.
=136-	=136-	=136-	=136-	=136-	=136-	=136-	=136-	=136-	=136-	=136-	=136-	=136-	=136-	=136-	=136-
!	!	!	!	!LO:N:acc=#	!	!	!	!	!	!	!	!	!	!	!
0G;>	-i)a	0d;;	-i)a	0bn;;	-i)a	0dd;;	-i)a	0g;;	-i)a	0g;;	-i)a	0dd;;	-i)a	0gg;;	-i)a
=-	=-	=-	=-	=-	=-	=-	=-	=-	=-	=-	=-	=-	=-	=-	=-
*-	*-	*-	*-	*-	*-	*-	*-	*-	*-	*-	*-	*-	*-	*-	*-
!!!system-decoration: [(g1)][(g2)]
!!!ENC: Filip Voros
!!!END: 2021-10-14
!!!EED: Jędrzej Mróz
!!!ESR: 2021-10-21
!!!RDF**kern: > = above
!!!RDF**kern: < = below
